!!!COM: Palestrina, Giovanni Perluigi da
!!!OPR: Missa In duplicibus minoribus (I)
!!!OMD: Sanctus rpt
!!!OTL: Pleni
**kern	**kern	**kern	**kern
*Itenor	*Itenor	*Icalto	*Icant
!Tenor 2	!Tenor 1	!Altus	!Cantus
*clefGv2	*clefGv2	*clefG2	*clefG2
*k[]	*k[]	*k[]	*k[]
*E:phr	*E:phr	*E:phr	*E:phr
*M4/2	*M4/2	*M4/2	*M4/2
=30	=30	=30	=30
1A	0r	0r	0r
2G	.	.	.
2E	.	.	.
=31	=31	=31	=31
2.A	0r	1r	0r
4G	.	.	.
4A	.	1e	.
4B	.	.	.
2c	.	.	.
=32	=32	=32	=32
2B	0r	2d	1r
2G	.	2B	.
1A	.	2.e	2r
.	.	.	2a
.	.	4d	.
=33	=33	=33	=33
2E	0r	4e	2g
.	.	4f	.
2.e	.	2g	2e
.	.	2f	2.a
4d	.	.	.
2d	.	2d	.
.	.	.	4g
=34	=34	=34	=34
2.c	1A	1e	4a
.	.	.	4b
.	.	.	2cc
4d	.	.	.
1e	2G	2E	2b
.	2E	2B	2g
=35	=35	=35	=35
1e	2.A	2c	1a
.	.	2c	.
.	4G	.	.
2r	4A	1c	2e
.	4B	.	.
2e	2c	.	4e
.	.	.	4f
=36	=36	=36	=36
2d	2B	2G	4g
.	.	.	4a
2B	2G	2d	2.b
1e	1A	2c	.
.	.	.	4a
.	.	4B	[2a
.	.	4A	.
=37	=37	=37	=37
2.e	1E	1B	2a]
.	.	.	2g#
4d	.	.	.
4c	2.F	2A	1a
4B	.	.	.
4A	.	2c	.
4G	4G	.	.
=38	=38	=38	=38
2F	4A	2d	0r
.	4B	.	.
2E	1c	2e	.
1D	.	1f	.
.	2B	.	.
=39	=39	=39	=39
1C	1c	2.e	2r
.	.	.	2g
.	.	4d	.
1r	1r	2c	2a
.	.	2B	2b
=40	=40	=40	=40
0r	1r	2A	1.cc
.	.	2c	.
.	1G	2d	.
.	.	2e	2b
=41	=41	=41	=41
1r	2A	2f	2a
.	2B	2d	1g
1C	1c	1e	.
.	.	.	4f
.	.	.	4e
=42	=42	=42	=42
2D	1B	2d	2f
2E	.	2G	1e
1F	2r	1A	.
.	2A	.	2d
=43	=43	=43	=43
2E	2B	2r	1e
2E	2c	2G	.
2F	2d	2A	1r
2G	[2e	2B	.
=44	=44	=44	=44
1A	4e]	4c	2r
.	4d	4d	.
.	1c	4e	2c
.	.	4f	.
1G	.	1g	2d
.	2B	.	2e
=45	=45	=45	=45
2.F	2.A	1.c	1f
4G	4B	.	.
4A	1c	.	2.e
4B	.	.	.
[2c	.	2e	.
.	.	.	4f
=46	=46	=46	=46
2c]	1G	1d	1g
2B	.	.	.
1c	2.A	2r	1e
.	.	2c	.
.	4G	.	.
=47	=47	=47	=47
2r	2F	2d	0r
2G	2E	2e	.
2A	1D	1f	.
2B	.	.	.
=48	=48	=48	=48
1.c	1C	[0e	1g
.	2r	.	2a
2B	2G	.	2b
=49	=49	=49	=49
2A	2A	1e_	2cc
2G#	2B	.	2b
[1A	[1c	1e_	[1a
=50	=50	=50	=50
1A]	1c]	0e]	1a]
1E	1B	.	1g#
*-	*-	*-	*-
!!!CDT: 1525/^1526/-1594/2/2
!!!OCY: Italia
!!!AGN: Mass (Paraphrase)
!!!AST: renaissance, vocal
!!!ASW: Gregorian Mass
!!!PWK: Masses, Book Mantuan I
!!!RNB: Cadence finals: A
!!!YOR: Le Opere Complete, v. 18, p. 42
!!!YOO: Rome, Italy: Fratelli Scalera
!!!END: 1992//
!!!EED: John Miller
!!!YEC: Copyright 2000, John Miller
!!!YEN: United States of America
!!!YEM: Rights to all derivative electronic formats reserved.
!!!YEM: Refer to licensing agreement for further details.
!!!YEM: This file must be accompanied by the licensing agreement.
!!!YEM: A copy of the licensing agreement may be found at http://www.music-cog.ohio-state.edu/HumdrumDatabases/Palestrina/license.txt
!!!EMD: converted to Humdrum by Bret Aarden
